images/fadelogomark.svg

<svg fill="none" height="110" viewBox="0 0 320 110" width="320" xmlns="http://www.w3.org/2000/svg" xmlns:xlink="http://www.w3.org/1999/xlink"><mask id="a" height="27" maskUnits="userSpaceOnUse" width="27" x="294" y="0"><path d="m307.116 26.072c7.116 0 12.884-5.8364 12.884-13.036 0-7.19959-5.768-13.036-12.884-13.036s-12.885 5.83641-12.885 13.036c0 7.1996 5.769 13.036 12.885 13.036z" fill="#fff"/></mask><mask id="b" height="27" maskUnits="userSpaceOnUse" width="27" x="294" y="0"><path d="m307.116 26.072c7.116 0 12.884-5.8364 12.884-13.036 0-7.19959-5.768-13.036-12.884-13.036s-12.885 5.83641-12.885 13.036c0 7.1996 5.769 13.036 12.885 13.036z" fill="#fff"/></mask><path d="m7.35437 17.338v37.5072h46.62663v6.9132h-46.62663v45.8916h-7.35437v-97.078h66.1893v6.766zm125.79063 85.458c2.45 0 4.363-.343 5.736-1.03l-.443 5.884c-1.764.98-4.167 1.471-7.206 1.471-3.432 0-6.227-.932-8.384-2.795s-3.383-5.099-3.677-9.7079c-2.256 3.9219-5.884 7.0109-10.885 9.2669-5.001 2.157-10.247 3.236-15.7383 3.236-7.2562 0-13.0906-1.618-17.5033-4.854-4.3146-3.236-6.4719-7.8451-6.4719-13.8266 0-11.3748 9.3155-18.7291 27.9466-22.0631l22.5039-3.9714v-6.4717c0-5.8835-1.765-10.4923-5.295-13.8263-3.432-3.334-8.335-5.0009-14.7083-5.0009-11.669 0-19.5136 5.1971-23.534 15.5912l-5.5893-4.1184c2.1573-5.7855 5.7363-10.1981 10.7373-13.2379 5.0009-3.1379 11.1296-4.7068 18.386-4.7068 8.5313 0 15.1993 2.1083 20.0033 6.3247 4.903 4.1185 7.355 10.1491 7.355 18.0917v37.9487c0 5.1968 2.255 7.7958 6.767 7.7958zm-39.8618-.147c4.1184 0 8.1388-.687 12.0608-2.06 3.923-1.4704 7.159-3.5787 9.708-6.3242 2.648-2.8438 3.971-6.2267 3.971-10.1491v-13.6791l-20.1505 3.6772c-7.9427 1.4708-13.7281 3.53-17.3563 6.1777-3.6282 2.6475-5.4423 6.0305-5.4423 10.1489 0 3.9224 1.5201 6.9622 4.5598 9.1195 3.0398 2.0591 7.2564 3.0891 12.6495 3.0891zm121.7828-102.373121v107.374121h-6.617l-.443-16.4742c-2.059 5.5893-5.491 10.0022-10.295 13.2382-4.805 3.138-10.493 4.707-17.062 4.707-10.395 0-18.632-3.383-24.711-10.1495-5.982-6.766-8.972-16.1305-8.972-28.0937s2.99-21.3276 8.972-28.0936c6.079-6.7661 14.316-10.1491 24.711-10.1491 6.373 0 11.913 1.5199 16.62 4.5597 4.707 3.0399 8.188 7.2073 10.443 12.5024v-49.421321zm-33.535 102.373121c7.649 0 13.827-2.55 18.534-7.6488 4.706-5.1972 7.255-12.2084 7.647-21.0336v-6.1776c-.49-8.8252-3.089-15.7873-7.795-20.8864-4.608-5.1971-10.737-7.7956-18.386-7.7956-8.53 0-15.199 2.8436-20.004 8.531-4.804 5.5893-7.207 13.3359-7.207 23.2398s2.403 17.6995 7.207 23.387c4.805 5.5893 11.474 8.3842 20.004 8.3842zm118.754-33.5363c0 1.6671-.097 3.285-.294 4.8539h-58.393c.49 9.0214 3.138 16.0816 7.942 21.1806 4.904 5.0008 11.424 7.5018 19.563 7.5018 5.786 0 10.737-1.177 14.855-3.5304 4.217-2.3535 7.258-5.6874 9.121-10.0019l6.177 3.2358c-2.745 5.3933-6.667 9.5605-11.767 12.5025-5.1 2.844-11.227 4.266-18.386 4.266-10.885 0-19.415-3.383-25.594-10.1495-6.078-6.766-9.119-16.1305-9.119-28.0937s2.942-21.3276 8.826-28.0936c5.982-6.7661 14.316-10.1491 25.004-10.1491 10.002 0 17.847 3.334 23.535 10.0019 5.687 6.668 8.53 15.4932 8.53 26.4757zm-32.065-30.0057c-7.941 0-14.218 2.5004-18.827 7.5014-4.608 4.9029-7.207 11.816-7.795 20.7393h51.775c-.491-8.8253-2.942-15.7383-7.354-20.7393-4.315-5.001-10.247-7.5014-17.799-7.5014z" fill="#ff9800"/><g mask="url(#a)"><path d="m316.333 22.2537c5.032-5.0316 4.984-13.23758-.107-18.32845-5.091-5.09086-13.297-5.13885-18.328-.10718-5.032 5.03167-4.984 13.23763.107 18.32843 5.091 5.0909 13.297 5.1389 18.328.1072z" fill="#fff"/><g mask="url(#b)"><path d="m289.365 7.5883-3.051 3.0509 21.608 21.6073 3.051-3.0509z" fill="#ff9800"/><path d="m292.416 4.50138-3.051 3.05087 21.608 21.60725 3.05-3.0508z" fill="#ffa726"/><path d="m295.468 1.41398-3.051 3.05086 21.607 21.60726 3.051-3.0508z" fill="#ffb74d"/><path d="m298.519-1.67245-3.051 3.05087 21.607 21.60728 3.051-3.0508z" fill="#ffcc80"/><path d="m301.568-4.75887-3.05 3.05086 21.607 21.60731 3.051-3.0509z" fill="#ffe0b2"/><path d="m304.62-7.84579-3.051 3.05087 21.608 21.60732 3.051-3.0509z" fill="#fff3e0"/></g></g></svg>

<svg width="320" height="110" viewBox="0 0 320 110" fill="none" xmlns="http://www.w3.org/2000/svg">
<path d="M7.35437 17.338V54.8452H53.981V61.7584H7.35437V107.65H0V10.572H66.1893V17.338H7.35437ZM133.145 102.796C135.595 102.796 137.508 102.453 138.881 101.766L138.438 107.65C136.674 108.63 134.271 109.121 131.232 109.121C127.8 109.121 125.005 108.189 122.848 106.326C120.691 104.463 119.465 101.227 119.171 96.6181C116.915 100.54 113.287 103.629 108.286 105.885C103.285 108.042 98.039 109.121 92.5477 109.121C85.2915 109.121 79.4571 107.503 75.0444 104.267C70.7298 101.031 68.5725 96.4219 68.5725 90.4404C68.5725 79.0656 77.888 71.7113 96.5191 68.3773L119.023 64.4059V57.9342C119.023 52.0507 117.258 47.4419 113.728 44.1079C110.296 40.7739 105.393 39.107 99.0197 39.107C87.3507 39.107 79.5061 44.3041 75.4857 54.6982L69.8964 50.5798C72.0537 44.7943 75.6327 40.3817 80.6337 37.3419C85.6346 34.204 91.7633 32.6351 99.0197 32.6351C107.551 32.6351 114.219 34.7434 119.023 38.9598C123.926 43.0783 126.378 49.1089 126.378 57.0515V95.0002C126.378 100.197 128.633 102.796 133.145 102.796ZM93.2832 102.649C97.4016 102.649 101.422 101.962 105.344 100.589C109.267 99.1186 112.503 97.0103 115.052 94.2648C117.7 91.421 119.023 88.0381 119.023 84.1157V70.4366L98.8725 74.1138C90.9298 75.5846 85.1444 77.6438 81.5162 80.2915C77.888 82.939 76.0739 86.322 76.0739 90.4404C76.0739 94.3628 77.594 97.4026 80.6337 99.5599C83.6735 101.619 87.8901 102.649 93.2832 102.649ZM215.066 0.275879V107.65H208.449L208.006 91.1758C205.947 96.7651 202.515 101.178 197.711 104.414C192.906 107.552 187.218 109.121 180.649 109.121C170.254 109.121 162.017 105.738 155.938 98.9715C149.956 92.2055 146.966 82.841 146.966 70.8778C146.966 58.9146 149.956 49.5502 155.938 42.7842C162.017 36.0181 170.254 32.6351 180.649 32.6351C187.022 32.6351 192.562 34.155 197.269 37.1948C201.976 40.2347 205.457 44.4021 207.712 49.6972V0.275879H215.066ZM181.531 102.649C189.18 102.649 195.358 100.099 200.065 95.0002C204.771 89.803 207.32 82.7918 207.712 73.9666V67.789C207.222 58.9638 204.623 52.0017 199.917 46.9026C195.309 41.7055 189.18 39.107 181.531 39.107C173.001 39.107 166.332 41.9506 161.527 47.638C156.723 53.2273 154.32 60.9739 154.32 70.8778C154.32 80.7817 156.723 88.5773 161.527 94.2648C166.332 99.8541 173.001 102.649 181.531 102.649ZM300.285 69.1127C300.285 70.7798 300.188 72.3977 299.991 73.9666H241.598C242.088 82.988 244.736 90.0482 249.54 95.1472C254.444 100.148 260.964 102.649 269.103 102.649C274.889 102.649 279.84 101.472 283.958 99.1186C288.175 96.7651 291.216 93.4312 293.079 89.1167L299.256 92.3525C296.511 97.7458 292.589 101.913 287.489 104.855C282.389 107.699 276.262 109.121 269.103 109.121C258.218 109.121 249.688 105.738 243.509 98.9715C237.431 92.2055 234.39 82.841 234.39 70.8778C234.39 58.9146 237.332 49.5502 243.216 42.7842C249.198 36.0181 257.532 32.6351 268.22 32.6351C278.222 32.6351 286.067 35.9691 291.755 42.637C297.442 49.305 300.285 58.1302 300.285 69.1127ZM268.22 39.107C260.279 39.107 254.002 41.6074 249.393 46.6084C244.785 51.5113 242.186 58.4244 241.598 67.3477H293.373C292.882 58.5224 290.431 51.6094 286.019 46.6084C281.704 41.6074 275.772 39.107 268.22 39.107Z" fill="#FF9800"/>
<mask id="mask0" mask-type="alpha" maskUnits="userSpaceOnUse" x="294" y="0" width="27" height="27">
<path d="M307.116 26.072C314.232 26.072 320 20.2356 320 13.036C320 5.83641 314.232 0 307.116 0C300 0 294.231 5.83641 294.231 13.036C294.231 20.2356 300 26.072 307.116 26.072Z" fill="white"/>
</mask>
<g mask="url(#mask0)">
<path d="M316.333 22.2537C321.365 17.2221 321.317 9.01612 316.226 3.92525C311.135 -1.16561 302.929 -1.2136 297.898 3.81807C292.866 8.84974 292.914 17.0557 298.005 22.1465C303.096 27.2374 311.302 27.2854 316.333 22.2537Z" fill="white"/>
<mask id="mask1" mask-type="alpha" maskUnits="userSpaceOnUse" x="294" y="0" width="27" height="27">
<path d="M307.116 26.072C314.232 26.072 320 20.2356 320 13.036C320 5.83641 314.232 0 307.116 0C300 0 294.231 5.83641 294.231 13.036C294.231 20.2356 300 26.072 307.116 26.072Z" fill="white"/>
</mask>
<g mask="url(#mask1)">
<path d="M289.365 7.5883L286.314 10.6392L307.922 32.2465L310.973 29.1956L289.365 7.5883Z" fill="#FF9800"/>
<path d="M292.416 4.50138L289.365 7.55225L310.973 29.1595L314.023 26.1087L292.416 4.50138Z" fill="#FFA726"/>
<path d="M295.468 1.41398L292.417 4.46484L314.024 26.0721L317.075 23.0213L295.468 1.41398Z" fill="#FFB74D"/>
<path d="M298.519 -1.67245L295.468 1.37842L317.075 22.9857L320.126 19.9349L298.519 -1.67245Z" fill="#FFCC80"/>
<path d="M301.568 -4.75887L298.518 -1.70801L320.125 19.8993L323.176 16.8484L301.568 -4.75887Z" fill="#FFE0B2"/>
<path d="M304.62 -7.84579L301.569 -4.79492L323.177 16.8124L326.228 13.7615L304.62 -7.84579Z" fill="#FFF3E0"/>
</g>
</g>
</svg>
